icon/lg/nocodb.svg

<?xml version="1.0" encoding="UTF-8"?>
<svg viewBox="0 0 256 256" version="1.1" xmlns="http://www.w3.org/2000/svg" xmlns:xlink="http://www.w3.org/1999/xlink" preserveAspectRatio="xMidYMid" height="1em" width="1em">
  <g>
    <path d="M211.570833,256 L44.4291667,256 C19.8916667,256 0,236.108333 0,211.570833 L0,44.4291667 C0,19.8916667 19.8916667,0 44.4291667,0 L211.570833,0 C236.108333,0 256,19.8916667 256,44.4291667 L256,211.570833 C256,236.108333 236.108333,256 211.570833,256" fill="#0381FD"/>
    <path d="M162.302917,117.771667 C157.307083,117.550833 153.019583,121.500833 152.790417,126.538333 C152.56125,131.63 156.31125,135.875833 161.357083,136.238333 C166.540417,136.605 171.007083,132.4925 171.12375,127.2425 C171.23625,122.125833 167.390417,117.996667 162.302917,117.771667 L162.302917,117.771667 Z M93.8070833,136.255 C98.8529167,136.371667 103.002917,132.4175 103.165417,127.338333 C103.332083,122.0675 99.1695833,117.750833 93.9445833,117.767452 C88.91125,117.788333 84.8529167,121.8675 84.8235904,126.938333 C84.7945833,132.0175 88.7654167,136.134167 93.8070833,136.255 L93.8070833,136.255 Z M165.63625,59.9175 C163.477917,65.53 161.357083,71.0466667 159.107083,76.8925 C161.16125,77.7175 162.802917,78.3966667 164.46125,79.0383333 C202.66125,93.7841667 229.315417,130.950833 230.54875,171.209167 C230.815417,179.896667 230.015417,180.750833 221.494583,180.755 C202.569583,180.759167 183.644583,180.755 164.715417,180.755 L158.63625,180.755 C160.802917,186.3675 162.677917,191.23 164.602917,196.225833 L200.252917,196.225833 C208.01125,190.663333 214.39875,190.459167 219.102917,195.721667 C223.17375,200.28 223.032083,208.125833 218.794583,212.588333 C213.944583,217.688333 207.477917,217.313333 200.06125,211.363333 C187.794583,211.363333 175.344583,211.371667 162.89875,211.359167 C155.969583,211.350833 154.452917,210.221667 151.965417,203.609167 C149.165417,196.1675 146.302917,188.750833 143.377917,181.088333 L118.644583,181.088333 C115.68625,188.7425 112.71125,196.450833 109.72375,204.155 C107.277917,210.450833 105.73625,211.434167 98.9529167,211.4175 C85.8445833,211.384167 72.73625,211.409167 59.81125,211.409167 C52.4570833,217.363333 45.9570833,217.6925 41.1029167,212.500833 C36.8320833,207.93 36.7445833,200.355 40.9070833,195.655 C45.5779167,190.38 52.3445833,190.584167 59.6029167,196.346667 L97.26125,196.346667 C99.1445833,191.525833 101.057083,186.638333 103.240417,181.0425 C101.09875,180.934167 99.37375,180.7675 97.6529167,180.7675 C76.23625,180.750833 54.8195833,180.7675 33.4029167,180.746667 C26.41125,180.7425 25.31125,179.584167 25.4154167,172.6175 C26.06125,129.688333 54.7529167,91.2258333 96.3195833,77.555 C98.18625,76.9425 100.04875,76.3216667 102.407083,75.5425 C100.377917,70.2633333 98.4404167,65.23 96.4279167,59.9966667 L59.8029167,59.9966667 C51.1320833,66.9383333 45.2445833,65.205 40.7445833,60.2841667 C36.4945833,55.6383333 36.8695833,47.9675 41.21125,43.4633333 C46.0820833,38.4091667 52.1945833,38.78 60.0070833,44.7383333 C72.7654167,44.7383333 85.7154167,44.9008333 98.6570833,44.655 C103.98625,44.555 106.969583,46.7591667 108.719583,51.6216667 C111.23625,58.6258333 114.057083,65.5216667 116.927917,72.9258333 C128.09875,71.7008333 136.790417,71.93 145.03625,72.9258333 C147.51125,66.5258333 150.22375,59.4466667 152.990417,52.3883333 C155.540417,45.8841667 157.19875,44.7508333 164.090417,44.7383333 C176.044583,44.7216667 187.994583,44.7341667 199.815417,44.7341667 C208.519583,37.2841667 214.877917,39.4175 219.257083,44.0758333 C223.44875,48.5383333 223.077917,56.5591667 218.78625,60.8966667 C213.777917,65.9591667 207.457083,65.6591667 200.48625,59.9175 L165.63625,59.9175 Z" fill="#FFFFFF"/>
    <path d="M93.8066667,136.254167 C88.765,136.1375 84.7941667,132.016667 84.8231737,126.9375 C84.8525,121.870833 88.9108333,117.7875 93.9441667,117.770758 C99.1691667,117.75 103.331667,122.066667 103.165,127.3375 C103.0025,132.416667 98.8525,136.370833 93.8066667,136.254167" fill="#0381FD"/>
    <path d="M162.302917,117.771667 C167.390417,117.996667 171.23625,122.125833 171.12375,127.2425 C171.007083,132.4925 166.540417,136.605 161.357083,136.238333 C156.31125,135.875833 152.56125,131.63 152.790417,126.538333 C153.019583,121.500833 157.307083,117.550833 162.302917,117.771667" fill="#0381FD"/>
  </g>
</svg>

<svg width="256" height="256" xmlns="http://www.w3.org/2000/svg" preserveAspectRatio="xMidYMid"><path d="M211.57 256H44.43C19.891 256 0 236.108 0 211.57V44.43C0 19.891 19.892 0 44.43 0h167.14C236.109 0 256 19.892 256 44.43v167.14c0 24.538-19.892 44.43-44.43 44.43" fill="#0381FD"/><path d="M162.303 117.772c-4.996-.221-9.283 3.729-9.513 8.766-.229 5.092 3.521 9.338 8.567 9.7 5.183.367 9.65-3.745 9.767-8.995.112-5.117-3.734-9.246-8.821-9.471Zm-68.496 18.483c5.046.117 9.196-3.838 9.358-8.917.167-5.27-3.995-9.587-9.22-9.57-5.034.02-9.092 4.1-9.121 9.17-.03 5.08 3.941 9.196 8.983 9.317Zm71.83-76.338c-2.16 5.613-4.28 11.13-6.53 16.975 2.054.826 3.696 1.505 5.354 2.146 38.2 14.746 64.854 51.913 66.088 92.171.266 8.688-.534 9.542-9.054 9.546-18.925.004-37.85 0-56.78 0h-6.079c2.167 5.613 4.042 10.475 5.967 15.47h35.65c7.758-5.562 14.146-5.766 18.85-.503 4.07 4.558 3.93 12.404-.308 16.866-4.85 5.1-11.317 4.725-18.734-1.225-12.266 0-24.716.009-37.162-.004-6.93-.008-8.446-1.137-10.934-7.75-2.8-7.442-5.662-14.858-8.587-22.52h-24.733c-2.959 7.654-5.934 15.362-8.921 23.066-2.446 6.296-3.988 7.28-10.771 7.262-13.108-.033-26.217-.008-39.142-.008-7.354 5.954-13.854 6.284-18.708 1.092-4.27-4.571-4.358-12.146-.196-16.846 4.67-5.275 11.438-5.07 18.696.692H97.26c1.884-4.821 3.796-9.709 5.98-15.305-2.142-.108-3.867-.274-5.588-.274-21.417-.017-42.833 0-64.25-.021-6.992-.005-8.092-1.163-7.988-8.13.646-42.929 29.338-81.391 70.905-95.062 1.866-.613 3.729-1.233 6.087-2.013l-5.98-15.545H59.804c-8.67 6.941-14.558 5.208-19.058.287-4.25-4.646-3.875-12.316.466-16.82 4.871-5.055 10.984-4.684 18.796 1.274 12.758 0 25.708.163 38.65-.083 5.33-.1 8.313 2.104 10.063 6.967 2.516 7.004 5.337 13.9 8.208 21.304 11.17-1.225 19.862-.996 28.108 0 2.475-6.4 5.188-13.48 7.954-20.538 2.55-6.504 4.209-7.637 11.1-7.65 11.955-.016 23.905-.004 35.725-.004 8.705-7.45 15.063-5.317 19.442-.658 4.192 4.462 3.82 12.483-.47 16.82-5.01 5.063-11.33 4.763-18.3-.979h-34.85Z" fill="#FFF"/><path d="M93.807 136.254c-5.042-.117-9.013-4.237-8.984-9.316.03-5.067 4.088-9.15 9.121-9.167 5.225-.021 9.388 4.296 9.221 9.567-.163 5.079-4.313 9.033-9.358 8.916M162.303 117.772c5.087.225 8.933 4.354 8.82 9.47-.116 5.25-4.583 9.363-9.766 8.996-5.046-.362-8.796-4.608-8.567-9.7.23-5.037 4.517-8.987 9.513-8.766" fill="#0381FD"/></svg>
